X:1
T:Title
%%score { ( 1 3 ) | ( 2 4 ) }
L:1/8
Q:1/4=100
M:4/4
K:Ab
V:1 treble nm="Grand Piano"
V:3 treble 
V:2 bass 
V:4 bass 
V:1
 [Ec]2 c>B A3 E | F[FA][EG][DF] [DF]2 [CE]2 | z4 B4 | E2 z2 =c4 | c2 c>B A3 E | %5
w: J.~Wesley~Hughes * * * *|||||
 F[FA][EG][DF] [DF]2 [CE]2 | A2 B>A c2 B2 | [CA]6 z2 | [Fd]2 [Fd]>[Fd] [Fd]2 [DF]>[DF] | z4 =c4 | %10
w: |||||
 B2 [GB]>[Ac] [Gd]2 G2 | z4 e4 | e2 c>B A2 [EG]2 | [DF]>[Fd] [Fd]>[=Ec] [Fd]4 | %14
w: ||||
 E2 Ac [Fc][DFB][CEA][B,DG] | [CA]6 z2 |] %16
w: ||
V:2
 [A,,A,]2 [E,G,E]>[E,G,D] [F,A,C]3 [C,A,] | [D,A,D][D,A,][D,A,][D,A,] [A,,A,]2 [A,,A,]2 | %2
 z4 [E,D]2 z2 | [C,A,]B,, [A,,A,]>[F,A,=D] E4 | [A,CE]2 [E,G,E]>[E,G,D] [F,A,C]3 [C,A,] | %5
 [D,A,D][D,A,][D,A,][D,A,] [A,,A,]2 [A,,A,]2 | [F,A,C]2 [=E,A,=D]>[E,A,D] [_E,A,E]2 [E,G,_D]2 | %7
 z2 F,2 E,2 z2 | [D,A,]2 [D,A,]>[D,A,] [D,A,]2 [D,A,]>[D,A,] | [A,,A,]>[A,E] [A,E]>[F,A,=D] E4 | %10
 [E,G,E]2 [E,D]>[E,C] [E,B,]2 [E,DE]2 | [A,CE]>[A,CE] [A,CA]>[A,_CF] E2 z2 | %12
 [A,CE]2 [E,G,E]>[E,G,D] [F,A,C]2 [C,A,]2 | [D,A,]>[D,A,] [D,A,]>[D,G,] [D,A,]4 | %14
 [C,A,]2 [F,A,C][F,A,C] [D,A,]D,E,E, | z2 F,2 E,2 z2 |] %16
V:3
 x8 | x8 | E2 B>=A z2 E2 | z G, [Ec]>_c z2 A,2 | x8 | x8 | x8 | A,2 z2 z4 | x8 | %9
 [CE]>c c>_c z z/ A,/- A,2 | x8 | A>e e>=d z2 A2 | x8 | x8 | x8 | A,2 z2 z4 |] %16
V:4
 x8 | x8 | [E,G,B,]2 [E,G,D]>[E,_G,C] =G,2- [D,G,]2 | z4 [E,A,]2 z2 | x8 | x8 | x8 | A,,6 z2 | x8 | %9
 z4 [E,A,]2 z2 | x8 | z4 [A,=C]4 | x8 | x8 | x8 | A,,6 z2 |] %16

